packages/icons/svg/Fill/phone-call.svg

<svg fill="none" height="24" viewBox="0 0 24 24" width="24" xmlns="http://www.w3.org/2000/svg"><path clip-rule="evenodd" d="m13 4c3.859 0 7 3.141 7 7 0 .553.447 1 1 1s1-.447 1-1c0-4.963-4.037-9-9-9-.552 0-1 .447-1 1s.448 1 1 1zm0 3.99994c1.654 0 3 1.34599 3 2.99996 0 .553.447 1 1 1s1-.447 1-1c0-2.75696-2.243-4.99997-5-4.99997-.552 0-1 .447-1 1.00001 0 .55299.448 1 1 1zm8.03 7.26226c.336.077.609.321.721.646.082.235.145.48.185.73.042.249.064.503.064.762 0 2.536-2.063 4.6-4.6 4.6-8.49099 0-15.39998-6.908-15.39998-15.401 0-2.536 2.064-4.599 4.6-4.599.25999 0 .517.022.766.065.243.039.488.101.725.183.326.113.57.386.647.722l1.36898 5.963c.076.329-.019.673-.25198.916-.137.143-.14.146-1.38.794 1.004 2.175 2.74898 3.913 4.87998 4.884.65-1.241.653-1.245.795-1.382.244-.233.587-.326.916-.253z" fill="#6b7280" fill-rule="evenodd"/></svg>

<svg width="24" height="24" viewBox="0 0 24 24" fill="none" xmlns="http://www.w3.org/2000/svg">
<g id="Icon/Fill/phone-call">
<path id="Mask" fill-rule="evenodd" clip-rule="evenodd" d="M13 4C16.859 4 20 7.141 20 11C20 11.553 20.447 12 21 12C21.553 12 22 11.553 22 11C22 6.037 17.963 2 13 2C12.448 2 12 2.447 12 3C12 3.553 12.448 4 13 4ZM13 8C14.654 8 16 9.346 16 11C16 11.553 16.447 12 17 12C17.553 12 18 11.553 18 11C18 8.243 15.757 6 13 6C12.448 6 12 6.447 12 7C12 7.553 12.448 8 13 8ZM21.03 15.2622C21.366 15.3392 21.639 15.5832 21.751 15.9082C21.833 16.1432 21.896 16.3882 21.936 16.6382C21.978 16.8872 22 17.1412 22 17.4002C22 19.9362 19.937 22.0002 17.4 22.0002C8.909 22.0002 2 15.0922 2 6.5992C2 4.0632 4.064 2.0002 6.6 2.0002C6.86 2.0002 7.117 2.0222 7.366 2.0652C7.609 2.1042 7.854 2.1662 8.091 2.2482C8.417 2.3612 8.661 2.6342 8.738 2.9702L10.107 8.9332C10.183 9.2622 10.088 9.6062 9.855 9.8492C9.718 9.9922 9.715 9.9952 8.475 10.6432C9.479 12.8182 11.224 14.5562 13.355 15.5272C14.005 14.2862 14.008 14.2822 14.15 14.1452C14.394 13.9122 14.737 13.8192 15.066 13.8922L21.03 15.2622Z" fill="#000000"/>
</g>
</svg>
